X: 13
T:Muiñeira de Lugo
M:6/8
L:1/8
R:Muiñeira
A:Galicia
N:Repertorio básic
K:C
cB| G4 cB | G4 cB | GAG DEF | A2 G2 cB| G4 cB | G4 cB | GAG FED |1 C4 :|
2|: 
C2C C2C | C2 D ECD | B,2 D D2D | D2 E FDE | C2 C C2 C| C2 D ECD | B,2 F
FGF EFE DED :| "D.C."C4 ||

